X: 31596
T: Palmer's Gate
R: reel
M: 4/4
K: Eminor
|:GA|BEEF G2BG|A2BG AGEF|G2GA BAGA|(3Bcd ed BAGA|
BEEF G2BG|A2BG AGEF|G2 (3Bcd edBA|GEFD E2:|
|:GA|Beed e3f|g2fg edBA|G2GA BAGA|(3Bcd ed BAGA|
Beed e3f|g2fg edBA|G2 (3Bcd edBA|GEFD E2:|

